X:1
T:Galveston, 75.75.77.75
T:Galveston, 75.75.77.75
T:John Robson Sweney, 1889
T:Public Domain Courtesy of the Cyber Hymnal™
C:John Robson Sweney, 1889
Z:Public Domain
Z:Courtesy of the Cyber Hymnal™
%%score ( 1 2 ) ( 3 4 )
L:1/8
Q:1/4=110
M:4/4
K:Eb
V:1 treble 
V:2 treble 
V:3 bass 
V:4 bass 
V:1
 [EG]3 [EF] E2 [EG]2 | [GB]2 [Ac]2 [GB]4 | [Ge]3 [Ac] [GB]2 [EG]2 | [DF]6 z2 | %4
 [EG]3 [EF] E2 [EG]2 | [GB]2 [Ac]2 [GB]4 | [Fd]3 [Fd] [Fd]2 [Ec]2 | B8 | [GB]2 [Ge]2 [Bd]2 [Ac]2 | %9
 [Ac]3 [GB] [GB]4 | [EA]2 [Ec]2 [EB]2 [EG]2 | [EG]3 [DF] [DF]4 | [EG]3 [FA] [GB]2 [EG]2 | %13
 [^Fe]3 [Fc] [GB]4 | E3 [EG] [EG]2 [DF]2 | [B,E]6 z2 |] %16
V:2
 x4 E2 x2 | x8 | x8 | x8 | x4 E2 x2 | x8 | x8 | (D4 A4) | x8 | x8 | x8 | x8 | x8 | x8 | E3 x5 | %15
 x8 |] %16
V:3
 [E,B,]3 [E,A,] [E,G,]2 [E,B,]2 | [E,E]2 [E,E]2 [E,E]4 | [E,B,]3 [E,E] [E,E]2 [E,B,]2 | %3
 [B,,B,]6 z2 | [E,B,]3 [E,A,] [E,G,]2 [E,B,]2 | [E,E]2 [E,E]2 [E,E]4 | %6
 [F,B,]3 [F,B,] [F,B,]2 [F,=A,]2 | (B,4 D4) | [E,E]2 [E,B,]2 [E,B,]2 [E,E]2 | [E,E]3 [E,E] [E,E]4 | %10
 [A,C]2 A,2 [G,B,]2 [E,B,]2 | [B,,B,]3 [B,,B,] [B,,B,]4 | [E,B,]3 [E,B,] [E,E]2 [E,B,]2 | %13
 [E,=A,]3 [E,A,] [E,B,]4 | [B,,G,]3 [B,,B,] [B,,B,]2 [B,,A,]2 | [E,G,]6 z2 |] %16
V:4
 x8 | x8 | x8 | x8 | x8 | x8 | x8 | B,,8 | x8 | x8 | x2 A,2 x4 | x8 | x8 | x8 | x8 | x8 |] %16

